=== wv-logo-tight-spacing.gcode ===
; Generated by Pen Plotter Converter
; Hatch Sawtooth Algorithm
G21 ; Set units to millimeters
G90 ; Use absolute positioning
G0 Z5 ; Lift pen
G0 X0 Y0 ; Move to origin

; Path 1
G0 Z5 ; Pen up
G0 X79.952 Y0.514
G0 Z0 ; Pen down
G1 X79.941 Y0.503 F1000
G1 X79.930 Y0.492 F1000
G1 X79.919 Y0.481 F1000
G1 X79.907 Y0.469 F1000
G1 X79.894 Y0.456 F1000
G1 X79.880 Y0.442 F1000
G1 X79.865 Y0.427 F1000
G1 X79.849 Y0.411 F1000
G1 X79.830 Y0.392 F1000
G1 X79.810 Y0.372 F1000
G1 X79.791 Y0.353 F1000
G1 X79.775 Y0.337 F1000
G1 X79.761 Y0.324 F1000
G1 X79.750 Y0.313 F1000
G1 X79.739 Y0.302 F1000
G1 X79.728 Y0.291 F1000
G1 X79.717 Y0.280 F1000
G1 X79.704 Y0.266 F1000
G1 X79.688 Y0.250 F1000

... (file continues)

G1 X0.068 Y59.819 F1000
G1 X0.064 Y59.806 F1000
G1 X0.061 Y59.793 F1000
G1 X0.056 Y59.780 F1000
G1 X0.048 Y59.769 F1000

G0 Z5 ; Pen up
G0 X0 Y0 ; Return to origin
M2 ; End program
; Total paths: 1