=== wv-logo-vertical.gcode ===
; Generated by Pen Plotter Converter
; Hatch Sawtooth Algorithm
G21 ; Set units to millimeters
G90 ; Use absolute positioning
G0 Z5 ; Lift pen
G0 X0 Y0 ; Move to origin

; Path 1
G0 Z5 ; Pen up
G0 X79.500 Y59.800
G0 Z0 ; Pen down
G1 X79.500 Y59.785 F1000
G1 X79.500 Y59.770 F1000
G1 X79.500 Y59.754 F1000
G1 X79.500 Y59.737 F1000
G1 X79.500 Y59.719 F1000
G1 X79.500 Y59.699 F1000
G1 X79.500 Y59.678 F1000
G1 X79.500 Y59.654 F1000
G1 X79.500 Y59.629 F1000
G1 X79.500 Y59.600 F1000
G1 X79.500 Y59.573 F1000
G1 X79.500 Y59.550 F1000
G1 X79.500 Y59.532 F1000
G1 X79.500 Y59.515 F1000
G1 X79.500 Y59.500 F1000
G1 X79.500 Y59.485 F1000
G1 X79.500 Y59.468 F1000
G1 X79.500 Y59.450 F1000
G1 X79.500 Y59.427 F1000

... (file continues)

G1 X0.000 Y59.737 F1000
G1 X0.000 Y59.754 F1000
G1 X0.000 Y59.770 F1000
G1 X0.000 Y59.785 F1000
G1 X0.000 Y59.800 F1000

G0 Z5 ; Pen up
G0 X0 Y0 ; Return to origin
M2 ; End program
; Total paths: 160