=== zebra-high-freq.gcode ===
; Generated by Pen Plotter Converter
; Hatch Sawtooth Algorithm
G21 ; Set units to millimeters
G90 ; Use absolute positioning
G0 Z5 ; Lift pen
G0 X0 Y0 ; Move to origin

; Path 1
G0 Z5 ; Pen up
G0 X0.000 Y0.000
G0 Z0 ; Pen down
G1 X0.009 Y0.000 F1000
G1 X0.020 Y0.000 F1000
G1 X0.034 Y0.000 F1000
G1 X0.050 Y0.000 F1000
G1 X0.067 Y0.000 F1000
G1 X0.084 Y0.000 F1000
G1 X0.102 Y0.000 F1000
G1 X0.119 Y0.000 F1000
G1 X0.135 Y0.000 F1000
G1 X0.150 Y0.000 F1000
G1 X0.164 Y0.000 F1000
G1 X0.179 Y0.000 F1000
G1 X0.194 Y0.000 F1000
G1 X0.209 Y0.000 F1000
G1 X0.225 Y0.000 F1000
G1 X0.241 Y0.000 F1000
G1 X0.256 Y0.000 F1000
G1 X0.271 Y0.000 F1000
G1 X0.286 Y0.000 F1000

... (file continues)

G1 X0.050 Y59.600 F1000
G1 X0.034 Y59.600 F1000
G1 X0.020 Y59.600 F1000
G1 X0.009 Y59.600 F1000
G1 X0.000 Y59.600 F1000

G0 Z5 ; Pen up
G0 X0 Y0 ; Return to origin
M2 ; End program
; Total paths: 1