=== zebra-default.gcode ===
; Generated by Pen Plotter Converter
; Hatch Sawtooth Algorithm
G21 ; Set units to millimeters
G90 ; Use absolute positioning
G0 Z5 ; Lift pen
G0 X0 Y0 ; Move to origin

; Path 1
G0 Z5 ; Pen up
G0 X79.315 Y0.019
G0 Z0 ; Pen down
G1 X79.326 Y0.030 F1000
G1 X79.336 Y0.040 F1000
G1 X79.348 Y0.051 F1000
G1 X79.360 Y0.063 F1000
G1 X79.372 Y0.076 F1000
G1 X79.386 Y0.090 F1000
G1 X79.402 Y0.105 F1000
G1 X79.418 Y0.121 F1000
G1 X79.437 Y0.140 F1000
G1 X79.457 Y0.160 F1000
G1 X79.476 Y0.179 F1000
G1 X79.492 Y0.195 F1000
G1 X79.505 Y0.209 F1000
G1 X79.516 Y0.220 F1000
G1 X79.527 Y0.231 F1000
G1 X79.538 Y0.242 F1000
G1 X79.549 Y0.253 F1000
G1 X79.563 Y0.267 F1000
G1 X79.579 Y0.283 F1000

... (file continues)

G1 X0.640 Y59.937 F1000
G1 X0.652 Y59.949 F1000
G1 X0.664 Y59.960 F1000
G1 X0.674 Y59.970 F1000
G1 X0.685 Y59.981 F1000

G0 Z5 ; Pen up
G0 X0 Y0 ; Return to origin
M2 ; End program
; Total paths: 1